icons/video-single-server-16.svg

<?xml version="1.0" encoding="UTF-8"?><svg id="icons" xmlns="http://www.w3.org/2000/svg" viewBox="0 0 16 16"><path d="m4,7h-1v-1h1v1Zm2-1h-1v1h1v-1Zm2,0h-1v1h1v-1Zm-.06357,2H2v-3h12v1.28665c.36163.15234.69006.35864,1,.58887v-2.87552H1v5h6.32791c.15997-.36035.37103-.68982.60852-1Zm8.03857,3c0,2.19524-1.69024,3.975-3.91738,3.975s-4.03262-1.77976-4.03262-3.975c0-2.19536,1.80548-3.975,4.03262-3.975s3.91738,1.77964,3.91738,3.975Zm-.975,0c0-1.65411-1.34589-3-3-3s-3,1.34589-3,3,1.34589,3,3,3,3-1.34589,3-3Zm-4-2v4l3-2-3-2Z"/><path fill="none" d="M0 0h16v16H0z"/></svg>

<svg xmlns="http://www.w3.org/2000/svg" viewBox="0 0 16 16"><path d="M4 7H3V6h1v1zm2-1H5v1h1V6zm2 0H7v1h1V6zm-.064 2H2V5h12v1.287c.362.152.69.358 1 .589V4H1v5h6.328c.16-.36.37-.69.608-1zm8.039 3c0 2.195-1.69 3.975-3.917 3.975S8.025 13.195 8.025 11c0-2.195 1.805-3.975 4.033-3.975s3.917 1.78 3.917 3.975zM15 11c0-1.654-1.346-3-3-3s-3 1.346-3 3 1.346 3 3 3 3-1.346 3-3zm-4-2v4l3-2-3-2z"/><path fill="none" d="M0 0h16v16H0z"/></svg>
